images/pig-scheme/sheya.svg

<svg width="205" height="238" viewBox="0 0 205 238" fill="none" xmlns="http://www.w3.org/2000/svg">
<path d="M204.61 66.73C192.06 84.02 179.07 102.36 166.45 121.18C162.77 126.67 159.12 132.19 155.53 137.75C149.97 146.33 144.53 154.99 139.3 163.65L134.43 171.82C131.49 176.81 128.63 181.8 125.85 186.78C123.54 190.92 121.29 195.04 119.12 199.16C112.47 211.71 106.46 224.14 101.32 236.31C101.19 236.61 101.06 236.9 100.94 237.2C100.95 237.02 100.97 236.83 100.98 236.65C101.48 229.77 101.59 223.21 101.31 216.97C101.23 215.17 101.12 213.4 100.97 211.66C100.49 205.76 99.64 200.17 98.41 194.87C98.06 193.34 97.68 191.84 97.26 190.37C95.87 185.38 94.12 180.67 92.02 176.26C91.42 174.99 90.79 173.74 90.12 172.51C88.39 169.3 86.4501 166.26 84.3101 163.38C83.6801 162.53 83.04 161.71 82.38 160.9C81.53 159.85 80.66 158.84 79.77 157.86C76.61 154.37 73.21 151.31 69.65 148.63C68.56 147.81 67.46 147.02 66.35 146.28C62.32 143.56 58.13 141.29 53.88 139.4C52.56 138.8 51.23 138.25 49.9 137.73C44.95 135.79 39.94 134.33 35.05 133.23C33.47 132.88 31.9 132.56 30.35 132.28C24.17 131.16 18.2601 130.59 12.9301 130.35C11.0101 130.26 9.17004 130.22 7.42004 130.21C6.09004 130.2 4.81999 130.21 3.60999 130.24C2.38999 130.27 1.2 130.35 0 130.46C5.51 126.86 11.48 123.36 17.59 120.04C21.48 117.92 25.43 115.88 29.35 113.93C30.9 113.16 32.45 112.4 33.99 111.66C45.58 107.35 55.1 103.42 62.38 100.25C66.59 98.41 70.04 96.82 72.71 95.57C76.2 93.92 78.3501 92.83 79.0701 92.46C79.1501 92.42 79.21 92.38 79.27 92.37C79.29 92.37 79.3101 92.35 79.3301 92.32C83.8501 90.45 87.72 87.42 90.89 83.35C93.67 79.79 95.78 75.57 97.34 70.94C98.17 68.48 98.85 65.9 99.4 63.23C100.79 56.44 101.32 49.14 101.31 41.97C101.31 40.11 101.27 38.26 101.2 36.43C100.96 30.1 100.37 24.01 99.66 18.62C99.44 16.89 99.2 15.24 98.96 13.67C98 7.46 96.99 2.6 96.41 0C101.35 1.22 105.6 2.4 109.11 3.52C110.67 4.01 112.08 4.48 113.34 4.94C113.89 5.14 114.4 5.34 114.89 5.53C119.05 7.16 122.97 8.92999 126.76 10.87C128 11.5 129.23 12.16 130.45 12.83C134.52 15.07 138.48 17.51 142.46 20.17C143.57 20.91 144.69 21.68 145.81 22.47C149.45 24.99 153.15 27.7 157.01 30.62C158.07 31.42 159.14 32.23 160.22 33.06C163.69 35.71 167.3 38.52 171.13 41.5C172.18 42.31 173.24 43.13 174.32 43.96C177.77 46.64 181.4 49.44 185.25 52.38C186.31 53.17 187.38 53.99 188.47 54.81C191.97 57.45 195.66 60.2 199.57 63.06C200.63 63.83 201.71 64.62 202.8 65.41C202.81 65.42 202.83 65.43 202.84 65.44C203.42 65.87 204.02 66.29 204.61 66.73Z" fill="#C21921"/>
<path fill-rule="evenodd" clip-rule="evenodd" d="M113.34 4.94002L99.66 18.62C99.44 16.89 99.2 15.24 98.96 13.67L109.11 3.52002C110.67 4.01002 112.08 4.48002 113.34 4.94002Z" fill="#9E1B1E"/>
<path fill-rule="evenodd" clip-rule="evenodd" d="M17.5898 120.04C21.4798 117.92 25.4299 115.88 29.3499 113.93L12.9299 130.35C11.0099 130.26 9.16992 130.22 7.41992 130.21L17.5898 120.04Z" fill="#9E1B1E"/>
<path fill-rule="evenodd" clip-rule="evenodd" d="M130.45 12.8301L101.31 41.9701C101.31 40.1101 101.27 38.2601 101.2 36.4301L126.76 10.8701C128 11.5001 129.23 12.1601 130.45 12.8301Z" fill="#9E1B1E"/>
<path fill-rule="evenodd" clip-rule="evenodd" d="M62.3799 100.25C66.5899 98.4101 70.0398 96.8201 72.7098 95.5701L35.0499 133.23C33.4699 132.88 31.8999 132.56 30.3499 132.28L62.3799 100.25Z" fill="#9E1B1E"/>
<path fill-rule="evenodd" clip-rule="evenodd" d="M145.81 22.4699L97.3398 70.9399C98.1698 68.4799 98.8499 65.8999 99.3999 63.2299L142.46 20.1699C143.57 20.9099 144.69 21.6799 145.81 22.4699Z" fill="#9E1B1E"/>
<path fill-rule="evenodd" clip-rule="evenodd" d="M160.22 33.0601L53.8799 139.4C52.5599 138.8 51.2299 138.25 49.8999 137.73L157.01 30.6201C158.07 31.4201 159.14 32.2301 160.22 33.0601Z" fill="#9E1B1E"/>
<path fill-rule="evenodd" clip-rule="evenodd" d="M174.32 43.96L69.6499 148.63C68.5599 147.81 67.4599 147.02 66.3499 146.28L171.13 41.5C172.18 42.31 173.24 43.13 174.32 43.96Z" fill="#9E1B1E"/>
<path fill-rule="evenodd" clip-rule="evenodd" d="M188.47 54.8099L82.38 160.9C81.53 159.85 80.66 158.84 79.77 157.86L185.25 52.3799C186.31 53.1699 187.38 53.9899 188.47 54.8099Z" fill="#9E1B1E"/>
<path fill-rule="evenodd" clip-rule="evenodd" d="M202.84 65.4401L92.0199 176.26C91.4199 174.99 90.7899 173.74 90.1199 172.51L199.57 63.0601C200.63 63.8301 201.71 64.6201 202.8 65.4101C202.81 65.4201 202.83 65.4301 202.84 65.4401Z" fill="#9E1B1E"/>
<path fill-rule="evenodd" clip-rule="evenodd" d="M166.45 121.18C162.77 126.67 159.12 132.19 155.53 137.75L98.4098 194.87C98.0598 193.34 97.6798 191.84 97.2598 190.37L166.45 121.18Z" fill="#9E1B1E"/>
<path fill-rule="evenodd" clip-rule="evenodd" d="M125.85 186.78C123.54 190.92 121.29 195.04 119.12 199.16L101.31 216.97C101.23 215.17 101.12 213.4 100.97 211.66L125.85 186.78Z" fill="#9E1B1E"/>
<path fill-rule="evenodd" clip-rule="evenodd" d="M101.32 236.31C101.19 236.61 101.06 236.9 100.94 237.2C100.95 237.02 100.97 236.83 100.98 236.65L101.32 236.31Z" fill="#9E1B1E"/>
</svg>

<svg width="205" height="238" fill="none" xmlns="http://www.w3.org/2000/svg"><path d="M204.61 66.73c-12.55 17.29-25.54 35.63-38.16 54.45-3.68 5.49-7.33 11.01-10.92 16.57-5.56 8.58-11 17.24-16.23 25.9l-4.87 8.17c-2.94 4.99-5.8 9.98-8.58 14.96-2.31 4.14-4.56 8.26-6.73 12.38-6.65 12.55-12.66 24.98-17.8 37.15-.13.3-.26.59-.38.89.01-.18.03-.37.04-.55.5-6.88.61-13.44.33-19.68-.08-1.8-.19-3.57-.34-5.31-.48-5.9-1.33-11.49-2.56-16.79-.35-1.53-.73-3.03-1.15-4.5-1.39-4.99-3.14-9.7-5.24-14.11-.6-1.27-1.23-2.52-1.9-3.75a74.728 74.728 0 00-5.81-9.13c-.63-.85-1.27-1.67-1.93-2.48-.85-1.05-1.72-2.06-2.61-3.04a72.194 72.194 0 00-10.12-9.23c-1.09-.82-2.19-1.61-3.3-2.35-4.03-2.72-8.22-4.99-12.47-6.88-1.32-.6-2.65-1.15-3.98-1.67-4.95-1.94-9.96-3.4-14.85-4.5-1.58-.35-3.15-.67-4.7-.95-6.18-1.12-12.09-1.69-17.42-1.93-1.92-.09-3.76-.13-5.51-.14-1.33-.01-2.6 0-3.81.03-1.22.03-2.41.11-3.61.22 5.51-3.6 11.48-7.1 17.59-10.42 3.89-2.12 7.84-4.16 11.76-6.11 1.55-.77 3.1-1.53 4.64-2.27 11.59-4.31 21.11-8.24 28.39-11.41 4.21-1.84 7.66-3.43 10.33-4.68 3.49-1.65 5.64-2.74 6.36-3.11.08-.04.14-.08.2-.09.02 0 .04-.02.06-.05 4.52-1.87 8.39-4.9 11.56-8.97 2.78-3.56 4.89-7.78 6.45-12.41.83-2.46 1.51-5.04 2.06-7.71 1.39-6.79 1.92-14.09 1.91-21.26 0-1.86-.04-3.71-.11-5.54-.24-6.33-.83-12.42-1.54-17.81A215.02 215.02 0 0096.41 0c4.94 1.22 9.19 2.4 12.7 3.52 1.56.49 2.97.96 4.23 1.42.55.2 1.06.4 1.55.59 4.16 1.63 8.08 3.4 11.87 5.34 1.24.63 2.47 1.29 3.69 1.96 4.07 2.24 8.03 4.68 12.01 7.34 1.11.74 2.23 1.51 3.35 2.3 3.64 2.52 7.34 5.23 11.2 8.15a460 460 0 013.21 2.44c3.47 2.65 7.08 5.46 10.91 8.44 1.05.81 2.11 1.63 3.19 2.46 3.45 2.68 7.08 5.48 10.93 8.42 1.06.79 2.13 1.61 3.22 2.43 3.5 2.64 7.19 5.39 11.1 8.25 1.06.77 2.14 1.56 3.23 2.35.01.01.03.02.04.03.58.43 1.18.85 1.77 1.29z" fill="#C21921"/><path fill-rule="evenodd" clip-rule="evenodd" d="M113.34 4.94L99.66 18.62c-.22-1.73-.46-3.38-.7-4.95l10.15-10.15c1.56.49 2.97.96 4.23 1.42zm-95.75 115.1c3.89-2.12 7.84-4.16 11.76-6.11l-16.42 16.42c-1.92-.09-3.76-.13-5.51-.14l10.17-10.17zM130.45 12.83l-29.14 29.14c0-1.86-.04-3.71-.11-5.54l25.56-25.56c1.24.63 2.47 1.29 3.69 1.96zm-68.07 87.42c4.21-1.84 7.66-3.43 10.33-4.68l-37.66 37.66c-1.58-.35-3.15-.67-4.7-.95l32.03-32.03zm83.43-77.78L97.34 70.94c.83-2.46 1.51-5.04 2.06-7.71l43.06-43.06c1.11.74 2.23 1.51 3.35 2.3zm14.41 10.59L53.88 139.4c-1.32-.6-2.65-1.15-3.98-1.67L157.01 30.62a460 460 0 013.21 2.44zm14.1 10.9L69.65 148.63c-1.09-.82-2.19-1.61-3.3-2.35L171.13 41.5c1.05.81 2.11 1.63 3.19 2.46zm14.15 10.85L82.38 160.9c-.85-1.05-1.72-2.06-2.61-3.04L185.25 52.38c1.06.79 2.13 1.61 3.22 2.43zm14.37 10.63L92.02 176.26c-.6-1.27-1.23-2.52-1.9-3.75L199.57 63.06c1.06.77 2.14 1.56 3.23 2.35.01.01.03.02.04.03zm-36.39 55.74c-3.68 5.49-7.33 11.01-10.92 16.57l-57.12 57.12c-.35-1.53-.73-3.03-1.15-4.5l69.19-69.19zm-40.6 65.6c-2.31 4.14-4.56 8.26-6.73 12.38l-17.81 17.81c-.08-1.8-.19-3.57-.34-5.31l24.88-24.88zm-24.53 49.53c-.13.3-.26.59-.38.89.01-.18.03-.37.04-.55l.34-.34z" fill="#9E1B1E"/></svg>
